X: 1
T:Kylebrack Rambler, The
C:Finbar Dwyer
R:reel
H:Also played in Dmix
D:Dervish: Harmony Hill
D:Altan: Island Angel
Z:id:hn-reel-690
M:C|
K:Amix
AE~E2 AEcE|AE~E2 GEDE|AE~E2 ~A3B|cdec d2cd|
eaab agef|gdeg dBGB|AGED EA~A2|1 cedB ABcB:|2 cedB ABcd||
|:ecdB cA~A2|~a3g edef|g2dg Bgdg|gaba gede|
a2c'e ae~e2|ge~e2 Be~e2|dB~B2 GABd|gedB ABcd:|
|:eA~A2 EA~A2|ae~e2 agef|g2fa gedB|Ggfa gedB|
cA~A2 EA~A2|ae~e2 agef|g2fa gedB|1 GBdB ABcd:|2 GBdB ABcB||
